light/close_pressed.svg

<svg width="100" height="100">
  <g transform="matrix(0.62164284,0,0,0.6235711,-0.63530434,3.6816315)">
    <path fill-rule="evenodd" clip-rule="evenodd" d="M 79.796875,10 A 70,70 0 0 0 10,80 70,70 0 0 0 80,150 70,70 0 0 0 150,80 70,70 0 0 0 80,10 70,70 0 0 0 79.796875,10 Z m 31.136715,28.5 c 3.18632,-0.0087 6.37636,1.211206 8.81446,3.660156 4.8727,4.8965 4.89297,12.857744 0.0469,17.777344 L 98.519531,81.515625 119.81836,103.11523 c 4.8062,4.8846 4.74022,12.79498 -0.14648,17.67188 -4.8881,4.8748 -12.74599,4.86241 -17.55079,-0.0215 L 80.96875,99.316406 59.777344,120.80664 c -4.8489,4.9238 -12.733175,4.94478 -17.609375,0.0469 -4.8727,-4.8965 -4.893675,-12.85775 -0.04687,-17.77735 L 63.396484,81.496094 42.099609,59.898438 c -4.8069,-4.8846 -4.742168,-12.796929 0.144532,-17.673829 4.8881,-4.8741 12.747934,-4.862415 17.552734,0.02148 L 80.949219,63.697266 102.14062,42.207031 c 2.42446,-2.4619 5.60666,-3.698369 8.79297,-3.707031 z" fill="#2d93c8" fill-opacity="0.5"/>
  </g>
</svg>

<svg width="100" height="100">
  <g transform="scale(0.45) translate(30, 30)">
    <path fill-rule="evenodd" clip-rule="evenodd" d="M 79.796875 10 A 70 70 0 0 0 10 80 A 70 70 0 0 0 80 150 A 70 70 0 0 0 150 80 A 70 70 0 0 0 80 10 A 70 70 0 0 0 79.796875 10 z M 110.93359 38.5 C 114.11991 38.491338 117.30995 39.711206 119.74805 42.160156 C 124.62075 47.056656 124.64102 55.0179 119.79492 59.9375 L 98.519531 81.515625 L 119.81836 103.11523 C 124.62456 107.99983 124.55858 115.91021 119.67188 120.78711 C 114.78378 125.66191 106.92589 125.64952 102.12109 120.76562 L 80.96875 99.316406 L 59.777344 120.80664 C 54.928444 125.73044 47.044169 125.75142 42.167969 120.85352 C 37.295269 115.95702 37.274294 107.99577 42.121094 103.07617 L 63.396484 81.496094 L 42.099609 59.898438 C 37.292709 55.013838 37.357441 47.101509 42.244141 42.224609 C 47.132241 37.350509 54.992075 37.362194 59.796875 42.246094 L 80.949219 63.697266 L 102.14062 42.207031 C 104.56508 39.745131 107.74728 38.508662 110.93359 38.5 z " fill="#2d93c8" fill-opacity="0.5"/>
  </g>
</svg>
